X: 1
T: String Quartet in D Minor opus 76 no 2 mvt 1
C: Franz Joseph Haydn
%%abc-version 2.0
%%abcx-abcm2ps-target-version 5.9.1 (29 Sep 2008)
%%abc-creator hum2abc beta
%%abcx-conversion-date 2021/02/14 14:38:17
%%abc-copyright Copyright (c) 1994, 2000 Center for Computer Assisted Research in the Humanities
%%abc-edited-by Frances Bennion
%%abcx-initial-encoding-date 1997/04/15
%%gracespace 0 6 6
%%humdrum-veritas 3772869882
%%humdrum-veritas-data 35289175
%%linebreak <none>
%%barnumbers 0
L: 1/8
M: 4/4
N: Derived from op76n2-01.krn
Q: "Allegro"
V: 1
V: 2
V: 3
V: 4
V: 5 clef=alto
V: 6 clef=bass
K: F
[V:1]A4 D4 [I:setbarnb2] |
[V:2]z8 |
[V:3]zA, A,A, zA, A,A, |
[V:4]z8 |
[V:5]F,F, F,F, zF, F,F, |
[V:6]D,,D, D,D, zD, D,D, |
[V:1]E4 A,4 |
[V:2]z8 |
[V:3]zB, B,B, z^C CC |
[V:4]z8 |
[V:5]zG, G,G, zG, G,G, |
[V:6]zD, D,D, zE, E,E, |
[V:1]D^C DE F2 EA |
[V:2]z8 |
[V:3]D^C DE D2 CA/G/ |
[V:4]z8 |
[V:5]A,7 ^C, |
[V:6]F,E, F,^C, D,2 A,,2 |
[V:1][d2D2] c/B/A/^G/ A2 z2 |
[V:2]z8 |
[V:3]F/G/F/E/ DD ^C2 z2 |
[V:4]z8 |
[V:5]D,E, F,D, E,2 z2 |
[V:6]B,,4 A,,2 z2 |
[V:1]a4 d4 |
[V:2]z8 |
[V:3]zA AA zA AA |
[V:4]z8 |
[V:5]zF FF zF FF |
[V:6]zD DD zD DD |
[V:1]e4 A4 |
[V:2]z8 |
[V:3]zB BB z^c cc |
[V:4]z8 |
[V:5]zG GG zG GG |
[V:6]zD DD zE EE |
[V:1]d^c de f2 ef |
[V:2]z8 |
[V:3]d2 zA/e/ d2 ^cd |
[V:4]z8 |
[V:5]A4- A2 z2 |
[V:6]FE F^C D2 A,z |
[V:1]g2 fa b2 ad' |
[V:2]z8 |
[V:3]e2 df g2 fa |
[V:4]z8 |
[V:5]z7 f |
[V:6]z8 |
[V:1]^c'2 zb a2 zB |
[V:2]z8 |
[V:3]g2 zf e2 zF |
[V:4]z8 |
[V:5]e2 zd ^c2 zD |
[V:6]z8 |
[V:1]A2 zB, A,2 z^F |
[V:2]z8 |
[V:3]E2 z4 zD |
[V:4]z8 |
[V:5]^C2 zF, E,2 zA, |
[V:6]z2 >D,2 ^C,2 z=C, |
[V:1]G^F GA B2 A/G/=F/E/ |
[V:2]z8 |
[V:3]DD DD D2 z2 |
[V:4]z8 |
[V:5]G,C B,C B,2 z2 |
[V:6]B,,A,, B,,^F,, G,,2 z2 |
[V:1]A2 ^Cz D2 z2 |
[V:2]z8 |
[V:3][FA,]z [EA,]z D2 z2 |
[V:4]z8 |
[V:5]Dz G,z F,2 z2 |
[V:6]A,,z A,,z D,,2 z2 |
[V:1]A/c/f/a/ c'c' c'd ba/g/ |
[V:2]z8 |
[V:3]z8 |
[V:4]z8 |
[V:5]F4 B,4 |
[V:6]z8 |
[V:1]f/e/a/g/ f/e/d/c/ B2 Ac |
[V:2]z8 |
[V:3]z8 |
[V:4]z8 |
[V:5]C4 F,4 |
[V:6]z8 |
[V:1]c/D/E/^F/ G/A/B/c/ dd dg |
[V:2]z8 |
[V:3]d4 G4 |
[V:4]z8 |
[V:5]B,B, B,B, BB BB |
[V:6]z8 |
[V:1]e3 d/e/ fa c'c' |
[V:2]z8 |
[V:3]c4 F2 c2 |
[V:4]z8 |
[V:5]BB BB A2 F2 |
[V:6]z8 |
[V:1]c'=b bb z_b bb |
[V:2]z8 |
[V:3]d4 ze ee |
[V:4]z8 |
[V:5]F4 zG GG |
[V:6]G,4 C,4 |
[V:1]ba aa d'2 c'/b/a/g/ |
[V:2]z8 |
[V:3]ef ff B>c dc/B/ |
[V:4]z8 |
[V:5]GF FF [D4G,4] |
[V:6]D,4 G,,4 |
[V:1]f3 g/f/ ec/d/ e/f/g/a/ |
[V:2]z8 |
[V:3]A3 B/A/ G2 z2 |
[V:4]z8 |
[V:5]C4 C,2 z2 |
[V:6]C,C CC C2 z2 |
[V:1]b4 e4 |
[V:2]z8 |
[V:3][G,E][BG] [GB][BG] [GB][GB] [BG][BG] |
[V:4]z8 |
[V:5]E,E EE EE EE |
[V:6]C,,C, C,C, C,C, C,C, |
[V:1]c'4 f4 |
[V:2]z8 |
[V:3][A,F][FA] [AF][AF] [AF][AF] [FA][AF] |
[V:4]z8 |
[V:5]F,[FA,] [FA,][FA,] [FA,][FA,] [FA,][A,F] |
[V:6]C,,C, C,C, C,C, C,C, |
[V:1]d'z gz c'z fc' |
[V:2]z8 |
[V:3][^fA][fA] z[gB] z[ec] z[=fc] |
[V:4]z8 |
[V:5]DD zd zG zA |
[V:6]C,z B,,z B,z A,z |
[V:1]gb ac' gb ac' |
[V:2]c2 <z2 cz3 |
[V:3]zg aa zg aa |
[V:4]z8 |
[V:5]BE FA BE FA |
[V:6]E,C, F,C, E,C, F,z |
[V:1]g/b/g/b/ ac' g/b/g/b/ ac' |
[V:2]cc cc cc cc |
[V:3]zG AA zG AA |
[V:4]z8 |
[V:5]BE FA BE Fz |
[V:6]E,,/C,,/E,,/C,,/ F,,/C,,/F,,/C,,/ E,,/C,,/E,,/C,,/ F,,z |
[V:1]b4 a4 |
[V:2]z8 |
[V:3]B4 A4 |
[V:4]z8 |
[V:5]F4 E4 |
[V:6]D4 C4 |
[V:1]d'4 g2 zc'- |
[V:2]z8 |
[V:3]d4 G2 za- |
[V:4]z8 |
[V:5]D4 E2 zF- |
[V:6]B,6 zA,- |
[V:1]c'b- ba- ag- ga |
[V:2]z8 |
[V:3]ag- gf- fe- ef |
[V:4]z8 |
[V:5]Fd- dc- cB- Bz |
[V:6]A,B,- B,C- CC,- C,z |
[V:1]b4 a4 |
[V:2]z8 |
[V:3]B4 A4 |
[V:4]z8 |
[V:5]F4 E4 |
[V:6]D4 C4 |
[V:1]^g4 a2 z^f- |
[V:2]z8 |
[V:3]^G4 A2 zc- |
[V:4]z8 |
[V:5]D4 E2 zA- |
[V:6]=B,4 C2 zD- |
[V:1]fg- ge- ef- fg- |
[V:2]z8 |
[V:3]cd- dB- Bc- cd- |
[V:4]z8 |
[V:5]AB- BG- GA- AG- |
[V:6]DG,- G,C- CF,- F,B,- |
[V:1]g2 zc'- c'2 ze |
[V:2]z8 |
[V:3]d2 z[e-B] [e2B2] zG |
[V:4]z8 |
[V:5]G2 zG- G2 zB, |
[V:6]B,2 zC,- C,2 zC, |
[V:1]f/e/f/g/ _a/f/g/e/ f/c/B/c/ _A/c/f/f/ |
[V:2]z8 |
[V:3][F2_A,2] c_d cz3 |
[V:4]z8 |
[V:5]_A,2 _AB Az3 |
[V:6]F,2 z2 F,2 z2 |
[V:1]g/f/g/_a/ b/g/a/f/ g/c/=B/c/ E/c/g/g/ |
[V:2]z8 |
[V:3][G,Ec]z c=B cz3 |
[V:4]z8 |
[V:5]C2 EF Ez3 |
[V:6]E,2 z2 E,2 z2 |
[V:1]_a4 _d3 c/d/ |
[V:2]z8 |
[V:3]C4 _D4 |
[V:4]z8 |
[V:5]F2 _A,4 _A3/F/ |
[V:6]F,,F, F,F, F,F, F,F, |
[V:1]b4 _D3 C/D/ |
[V:2]z8 |
[V:3]_D3 C/D/ B2 B2 |
[V:4]z8 |
[V:5]_E2 E4 E2 |
[V:6]G,,G, G,G, G,G, G,G, |
[V:1]C_e' e'e' e'2 _d'/c'/b/_a/ |
[V:2]z8 |
[V:3]_A4 _D4 |
[V:4]z8 |
[V:5][_A,4_E4] F4 |
[V:6]_A,2 z6 |
[V:1]g/_a/g/a/ b/c'/b/c'/ _d'/c'/b/a/ g/f/_e/_d/ |
[V:2]z8 |
[V:3]_E4 G,4 |
[V:4]z8 |
[V:5]G4 _E4 |
[V:6]z8 |
[V:1]cc' c'c' c'2 b/_a/g/f/ |
[V:2]z8 |
[V:3]_A,4 F4 |
[V:4]z8 |
[V:5]c2 z2 _D4 |
[V:6]z8 |
[V:1]e/f/e/f/ g/_a/g/a/ b/a/g/f/ e/_d/c/B/ |
[V:2]z8 |
[V:3]G2 E2 C2 G2 |
[V:4]z8 |
[V:5]C4 E,4 |
[V:6]z8 |
[V:1]_Ac cc c2 B/A/G/F/ |
[V:2]z8 |
[V:3]_A2 A4 F2 |
[V:4]z8 |
[V:5]F,2 F4 F,2 |
[V:6]F,,4 _D,,4 |
[V:1]C/>c/C/>c/ C/>c/C/>c/ C/>B/C/>_A/ C/>G/C3//A// |
[V:2]z8 |
[V:3]G2 z_A GF EF |
[V:4]z8 |
[V:5]E,2 z2 >C,2 CC |
[V:6]C,,C, C,z4 z |
[V:1]C/>G/C/>G/ C/>G/C/>c/ C/>B/C/>_A/ C/>G/C3//A// |
[V:2]z8 |
[V:3]E2 z_A GF EF |
[V:4]z8 |
[V:5]C,2 z2 >C,2 CC |
[V:6]C,,C, C,z4 z |
[V:1]C/>G/C/>G/ C/>G/C/>c/ C/>B/C/>_A/ C/>G/C3//A// |
[V:2]z8 |
[V:3]E2 z_A GF EF |
[V:4]z8 |
[V:5]C,2 z2 >C,2 CC |
[V:6]C,,C, C,C, C,C, C,C, |
[V:1]Gc cc cc cc |
[V:2]z8 |
[V:3]E2 z6 |
[V:4]z8 |
[V:5]C,2 z6 |
[V:6]C,,2 z6 |
[V:1]c/D/E/^F/ G/A/B/c/ dd dg |
[V:2]z8 |
[V:3]d4 B2 G2 |
[V:4]z8 |
[V:5]^F,4 G,2 B2 |
[V:6]z8 |
[V:1]e3 d/e/ fa c'c' |
[V:2]z8 |
[V:3]c4 F2 c2 |
[V:4]z8 |
[V:5]BB BB A2 F2 |
[V:6]z8 |
[V:1]c'=b bb z_b bb |
[V:2]z8 |
[V:3]d4 ze ee |
[V:4]z8 |
[V:5]F4 zG GG |
[V:6]G,4 C,4 |
[V:1]ba aa d'2 c'/b/a/g/ |
[V:2]z8 |
[V:3]ef ff B>c dc/B/ |
[V:4]z8 |
[V:5]GF FF [G,4D4] |
[V:6]D,4 G,,4 |
[V:1]f3 g/f/ e/f/g/a/ b/a/b/g/ |
[V:2]z8 |
[V:3]A4 B2 [B,2E2] |
[V:4]z8 |
[V:5]C6 C2- |
[V:6]C,C, C,C, C,C, C,C, |
[V:1]f/g/a/b/ c'/d'/e'/f'/ g'a' b'e' |
[V:2]z8 |
[V:3]F4 E4 |
[V:4]A,4 B,3 G, |
[V:5]C2 C4 C2- |
[V:6]F,F, F,F, F,F, F,F, |
[V:1]f'g' a'f' g'a' b'e' |
[V:2]z8 |
[V:3]F4 E4 |
[V:4]A,4 B,3 G, |
[V:5]C2 C4 C2- |
[V:6]F,F, F,F, F,F, F,F, |
[V:1]f'/e'/f'/a'/ f'/e'/f'/a'/ f'2 z2 |
[V:2]z8 |
[V:3][FA,][FA,] [A,F][A,F] [A,2F2] z2 |
[V:4]z8 |
[V:5]CC CC C2 z2 |
[V:6]F,F, F,F, F,2 z2 |
[V:1]c'/d'/c'/=b/ c'/d'/c'/b/ c'2 z2 |
[V:2]z8 |
[V:3]BB BB B2 z2 |
[V:4]z8 |
[V:5]GG GG G2 z2 |
[V:6]EE EE E2 z2 |
[V:1]f/g/f/e/ f/g/f/e/ f2 z2 |
[V:2]z8 |
[V:3]CD CD C2 z2 |
[V:4]z8 |
[V:5]A,B, A,B, A,2 z2 |
[V:6]F,F, F,F, F,2 z2 |
[V:1]c'/d'/c'/=b/ c'/d'/c'/b/ c'2 z2 |
[V:2]z8 |
[V:3]BB BB B2 z2 |
[V:4]z8 |
[V:5]GG GG G2 z2 |
[V:6]EE EE E2 z2 |
[V:1]z8 |
[V:2]z8 |
[V:3]z8 |
[V:4]z8 |
[V:5]z8 |
[V:6]F,,/G,,/F,,/E,,/ F,,/G,,/F,,/E,,/ F,,/G,,/F,,/E,,/ F,,/G,,/F,,/E,,/ |
[V:1]z[_EC] [EC][EC] zD DD |
[V:2]z8 |
[V:3]zA, A,A, zC CC |
[V:4]z8 |
[V:5]z^F, F,F, zF, F,F, |
[V:6]D,,4 A,,4 |
[V:1]zD DD zD DD |
[V:2]z8 |
[V:3]zB, B,B, zA, A,A, |
[V:4]z8 |
[V:5]zG, G,G, z^F, F,F, |
[V:6]G,,4 D,4 |
[V:1]d4 G4 |
[V:2]z8 |
[V:3]z8 |
[V:4]z8 |
[V:5]zG, G,G, zG, G,G, |
[V:6]z_E, E,E, zE, E,E, |
[V:1]A4 D4 |
[V:2]z8 |
[V:3]z8 |
[V:4]z8 |
[V:5]z^F, F,F, zF, F,F, |
[V:6]zD, D,D, zD, D,D, |
[V:1]_E4 B4 |
[V:2]z8 |
[V:3]_e4 G4 |
[V:4]z8 |
[V:5]zG, G,G, z_E EE |
[V:6]zC, C,C, zC CC |
[V:1]A4 _e4 |
[V:2]z8 |
[V:3]F4 c4 |
[V:4]z8 |
[V:5]zF FF zA, A,A, |
[V:6]zC CC zF, F,F, |
[V:1]d/f/b/d'/ f'f' f'g _e'd'/c'/ |
[V:2]z8 |
[V:3]B4 _E4 |
[V:4]z8 |
[V:5]B,2 z6 |
[V:6]B,2 z6 |
[V:1]b/a/d'/c'/ b/a/g/f/ _e/d/g/f/ e/d/c/B/ |
[V:2]z8 |
[V:3]F4 B,4 |
[V:4]z8 |
[V:5]z8 |
[V:6]z8 |
[V:1]B/A/c/B/ A/G/F/_E/ D/F/B/d/ f/_e/d/c/ |
[V:2]z8 |
[V:3]z8 |
[V:4]z8 |
[V:5]z8 |
[V:6]F,4 B,,4 |
[V:1]c/=B/d/c/ B/_A/G/F/ _E/G/c/_e/ g/f/e/d/ |
[V:2]z8 |
[V:3]z8 |
[V:4]z8 |
[V:5]G4 C4 |
[V:6]z8 |
[V:1]d/^c/e/d/ c/B/A/G/ F/A/d/f/ a/f/e/d/ |
[V:2]z8 |
[V:3]z8 |
[V:4]z8 |
[V:5]z8 |
[V:6]A,,4 D,,4 |
[V:1]b/f/e/d/ e/b/a/^g/ a/e/d/^c/ d/a/=g/^f/ |
[V:2]z8 |
[V:3]G2 C2 F2 B,2 |
[V:4]z8 |
[V:5]z2 C2 F,2 B,2 |
[V:6]z8 |
[V:1]g/d/^c/=B/ c/g/f/e/ f/d/c/e/ d/f/e/g/ |
[V:2]z8 |
[V:3]E2 A,2 DG F^C |
[V:4]z8 |
[V:5]E,2 A,2 D,2 z2 |
[V:6]z8 |
[V:1]f/d/^c/e/ d/f/e/g/ f/d/c/e/ d/f/e/g/ |
[V:2]z8 |
[V:3]DG F^C DG FC |
[V:4]z8 |
[V:5]z8 |
[V:6]z8 |
[V:1]f/d/^c/d/ c/d/c/d/ f/d/c/d/ c/d/c/d/ |
[V:2]z8 |
[V:3]D2 F4 D2 |
[V:4]z8 |
[V:5]z4 ^G,4 |
[V:6]D,4 B,,4 |
[V:1]a4 d4 |
[V:2]z8 |
[V:3]A2 A4 D2- |
[V:4]z8 |
[V:5]A,2 z2 F4 |
[V:6]A,,2 z2 D,4 |
[V:1]e4 A4 |
[V:2]z8 |
[V:3]D2 E4 A,2- |
[V:4]z8 |
[V:5]B,4 C4 |
[V:6]G,,4 A,,4 |
[V:1]f4 B4 |
[V:2]z8 |
[V:3]A,2 F4 B,2- |
[V:4]z8 |
[V:5]F,4 D4 |
[V:6]D,,4 B,4 |
[V:1]c4 F4 |
[V:2]z8 |
[V:3]B,2 C4 F2- |
[V:4]z8 |
[V:5]G,4 A,4 |
[V:6]_E,4 F,4 |
[V:1]d2 G2 _e2 A2 |
[V:2]z8 |
[V:3]F2 G4 A2 |
[V:4]z8 |
[V:5]D,2 D2 z2 _E2 |
[V:6]B,,4 C,4 |
[V:1]f4 =B4 |
[V:2]z8 |
[V:3][=BF][FB] [FB][BF] [FB][BF] [BF][BF] |
[V:4]z8 |
[V:5]_AA AA AA AA |
[V:6]D,D, D,D, D,D, D,D, |
[V:1]g4 c4 |
[V:2]z8 |
[V:3][Gc][Gc] [cG][cG] [cG][cG] [cG][cG] |
[V:4]z8 |
[V:5]GC CC CC CC |
[V:6]_E,E, E,E, E,E, E,E, |
[V:1]c'4 ^g4 |
[V:2]z8 |
[V:3][c2G2] z6 |
[V:4]z8 |
[V:5]Gc cc cc cc |
[V:6]E,E EE EE EE |
[V:1]a8- |
[V:2]z8 |
[V:3]f4 ^c4 |
[V:4]z8 |
[V:5]FF FF FF FF |
[V:6]F4 z4 |
[V:1]a4 ^d4 |
[V:2]z8 |
[V:3]d4 A4 |
[V:4]z8 |
[V:5]FF FF FF FF |
[V:6]z8 |
[V:1]e8 |
[V:2]z8 |
[V:3]^G4 =B4 |
[V:4]z8 |
[V:5]EE EE EE EE |
[V:6]z8 |
[V:1]f4 =B4 |
[V:2]z8 |
[V:3][=B8^G8] |
[V:4]z8 |
[V:5]d4 E4 |
[V:6]E,,E, E,E, E,E, E,E, |
[V:1]c4 ^F4 |
[V:2]z8 |
[V:3]A4 ^D4 |
[V:4]z8 |
[V:5]^D4 A4 |
[V:6]E,,E, E,E, E,E, E,E, |
[V:1]^G4 zd dd |
[V:2]z8 |
[V:3]EE EE zE EE |
[V:4]z8 |
[V:5]^G^G, G,G, zG, G,G, |
[V:6]E,,4 =B,,4 |
[V:1]c/d/c/=B/ A2 z^G/A/ G/A/G/A/ |
[V:2]z8 |
[V:3]zE EE z^D DD |
[V:4]z8 |
[V:5]zA, A,A, zA, A,A, |
[V:6]F,,4 C,4 |
[V:1]=B/A/B/c/ B2 zd dd |
[V:2]z8 |
[V:3]zE EE zE EE |
[V:4]z8 |
[V:5]z^G, G,G, zG, G,G, |
[V:6]E,,4 =B,,4 |
[V:1]c/d/c/=B/ A2 z^G/A/ G/A/G/A/ |
[V:2]z8 |
[V:3]zE EE z^D DD |
[V:4]z8 |
[V:5]zA, A,A, zA, A,A, |
[V:6]F,,4 C,4 |
[V:1]=B4 E4 |
[V:2]z8 |
[V:3]zE EE zE EE |
[V:4]z8 |
[V:5]z^G, G,G, zG, G,G, |
[V:6]E,,4 =B,,4 |
[V:1]=B4 E4 |
[V:2]z8 |
[V:3]zE EE zE EE |
[V:4]z8 |
[V:5]z^G, G,G, zG, G,G, |
[V:6]E,,4 =B,,4 |
[V:1]=B2 E2 B2 E2 |
[V:2]z8 |
[V:3]zE zE zE zE |
[V:4]z8 |
[V:5]z^G, zG, zG, zG, |
[V:6]E,,2 =B,,2 E,,2 B,,2 |
[V:1]=B4 E4 |
[V:2]z8 |
[V:3]z2 E2 E2 E2 |
[V:4]z8 |
[V:5]z2 ^G,2 G,2 G,2 |
[V:6]E,,8 |
[V:1]G4 C4 |
[V:2]z8 |
[V:3]E8 |
[V:4]G,8- |
[V:5]E,4 G,2 C2 |
[V:6]C,,C,, C,,C,, C,,C,, C,,C,, |
[V:1]D4 G,4 |
[V:2]z8 |
[V:3]F8 |
[V:4]G,8 |
[V:5]=B,4 [B,4D4] |
[V:6]C,,C,, C,,C,, C,,C,, C,,C,, |
[V:1]E/G/c/e/ gg g2 z2 |
[V:2]z8 |
[V:3]E4 E/G/c/e/ gg |
[V:4]G,4 z4 |
[V:5][G,8E8] |
[V:6]C,,C, C,C, C,C, C,C, |
[V:1]D/G/=B/d/ gg g2 z2 |
[V:2]z8 |
[V:3]g2 z2 D/G/=B/d/ gg |
[V:4]z8 |
[V:5][G,8D8] |
[V:6]=B,,B,, B,,B,, B,,B,, B,,B,, |
[V:1]D/G/B/d/ gg g2 z2 |
[V:2]z8 |
[V:3]g2 z2 D/G/B/d/ gg |
[V:4]z8 |
[V:5][G,8D8] |
[V:6]B,,B,, B,,B,, B,,B,, B,,B,, |
[V:1]gz [A^c']z [e'2A2] z2 |
[V:2]z8 |
[V:3]gz ez [^c2E2] z2 |
[V:4]z8 |
[V:5]^Cz Ez [A,2G2] z2 |
[V:6]A,,z A,,z A,,2 z2 |
[V:1]A4 D4 |
[V:2]z8 |
[V:3]zA, A,A, zA, A,A, |
[V:4]z8 |
[V:5]zF, F,F, zF, F,F, |
[V:6]zD, D,D, zD, D,D, |
[V:1]E4 A,4 |
[V:2]z8 |
[V:3]zB, B,B, z^C CC |
[V:4]z8 |
[V:5]zG, G,G, zG, G,G, |
[V:6]zD, D,D, zE, E,E, |
[V:1]D^C DE F2 EA |
[V:2]z8 |
[V:3]D^C DE D2 CA/G/ |
[V:4]z8 |
[V:5]A,7 ^C, |
[V:6]F,E, F,^C, D,2 A,,2 |
[V:1]d2 c/B/A/^G/ A=B/^c/ d/e/f/g/ |
[V:2]z8 |
[V:3]F/G/F/E/ DD ^C2 z2 |
[V:4]z8 |
[V:5]D,E, F,D, E,2 z2 |
[V:6]B,,4 A,,2 z2 |
[V:1]a4 d4 |
[V:2]z8 |
[V:3]zA AA zA AA |
[V:4]z8 |
[V:5]zF FF zF FF |
[V:6]zD DD zD DD |
[V:1]e4 A4 |
[V:2]z8 |
[V:3]zB BB z^c cc |
[V:4]z8 |
[V:5]zG GG zG GG |
[V:6]zD DD zE EE |
[V:1]d^c de f2 ef |
[V:2]z8 |
[V:3]d2 zA/e/ d2 ^cd |
[V:4]z8 |
[V:5]A4- A2 z2 |
[V:6]FE F^C D2 A,z |
[V:1]g2 fa b2 ad' |
[V:2]z8 |
[V:3]e2 df g2 fa |
[V:4]z8 |
[V:5]z7 f |
[V:6]z8 |
[V:1]^c'2 zb a2 zB |
[V:2]z8 |
[V:3]g2 zf e2 zF |
[V:4]z8 |
[V:5]e2 zd ^c2 zD |
[V:6]z8 |
[V:1]A2 z2 B,4 |
[V:2]z8 |
[V:3]E2 z6 |
[V:4]z8 |
[V:5]^C2 z2 F,4 |
[V:6]z4 D,4 |
[V:1]A,4 z3 ^F |
[V:2]z8 |
[V:3]z8 |
[V:4]z8 |
[V:5]E,4 z3 D |
[V:6]^C,4 z3 =C, |
[V:1]G^F GA2 <B2 B |
[V:2]z8 |
[V:3]z2 >D2 DC DE |
[V:4]z8 |
[V:5]D2 >C2 B,A, B,G, |
[V:6]B,,A,, B,,^F,,2 <G,,2 C, |
[V:1]AG A=B2 <c2 c |
[V:2]z8 |
[V:3]F2 >F2 ED E^F |
[V:4]z8 |
[V:5]F,2 zG, C,2 z2 |
[V:6]F,,2 z4 zD, |
[V:1]BA B^c2 <d2 d |
[V:2]z8 |
[V:3]G2 >G2 FE F^G |
[V:4]z8 |
[V:5]z2 >A,2 D,2 zD |
[V:6]G,,2 z4 zB,, |
[V:1]^c/d/e/f/ e/f/g/a/ b/a/b/a/ b/g/f/e/ |
[V:2]z8 |
[V:3]A2 [^c4E4] [c2E2] |
[V:4]z8 |
[V:5]E2 G4 G2 |
[V:6]A,,A,, A,,A,, A,,A,, A,,A,, |
[V:1]d/e/f/g/ f/g/a/b/ a/^c'/d'/c'/ d'/f'/e'/d'/ |
[V:2]z8 |
[V:3][F2d2] [d4F4] [F2d2] |
[V:4]z8 |
[V:5]F2 A2 F2 D2 |
[V:6]A,,A,, A,,A,, A,,A,, A,,A,, |
[V:1]^c'/d'/c'/d'/ e'/f'/e'/f'/ g'2 zf'- |
[V:2]z8 |
[V:3][e2G2] [F2d2] [E2^c2] za- |
[V:4]z8 |
[V:5]B2 A2 G2 zd- |
[V:6]A,,A,, A,,A,, A,,2 zD,- |
[V:1]f'2 ze'- e'2 zd'- |
[V:2]z8 |
[V:3]a2 zg- g2 zf- |
[V:4]z8 |
[V:5]d2 zB- B2 zA- |
[V:6]D,2 zG,- G,2 zA,- |
[V:1]d'2 z^c'- c'2 zd' |
[V:2]z8 |
[V:3]f2 ze- e2 z2 |
[V:4]z8 |
[V:5]A2 zG- G2 z2 |
[V:6]A,2 zA,,- A,,2 z2 |
[V:1]d3 e/d/ ^c/d/e/f/ g/e/g/e/ |
[V:2]z8 |
[V:3]A3 B/A/ B2 E2 |
[V:4]z8 |
[V:5]F3 G/F/ G2 ^C2 |
[V:6]D,D, D,D, D,D, D,D, |
[V:1]d3 e/d/ ^c/d/e/f/ g/e/g/e/ |
[V:2]z8 |
[V:3]FA2 B/A/ BB EE |
[V:4]z8 |
[V:5]DF2 G/F/ GG ^CC |
[V:6]D,D, D,D, D,D, D,D, |
[V:1]df ea df ea |
[V:2]z8 |
[V:3]FA2 ^c dA2 c |
[V:4]z8 |
[V:5]D2 zG FD zE |
[V:6]D,D ^CA, zD CA, |
[V:1]fa [d/a/]d'/[a/d/]d'/[db] d'[d/a/]d'/ [a/d/]d'/|
[V:2]z8 |
[V:3]d2 d4 d2 |
[V:4]z8 |
[V:5]F2 c2 B2 c2 |
[V:6]D2 ^F,/D,/F,/D,/ G,/D,/G,/D,/ F,/D,/F,/D,/ |
[V:1]b4 a4 |
[V:2]z8 |
[V:3]d8- |
[V:4]z8 |
[V:5]B4 c4 |
[V:6]G,4 A,4 |
[V:1]^g4 =g2 zf- |
[V:2]z8 |
[V:3]d4 e2 zd- |
[V:4]z8 |
[V:5]d4 A2 zA- |
[V:6]=B,4 ^C2 zD- |
[V:1]f2 ze- e2 zd- |
[V:2]z8 |
[V:3]d2 zB- B2 zA- |
[V:4]z8 |
[V:5]A2 zG- G2 zF- |
[V:6]D2 zG,- G,2 zA,- |
[V:1]d2 z^c- c2 zc |
[V:2]z8 |
[V:3]A2 zG- G2 zg |
[V:4]z8 |
[V:5]F2 zE- E2 zE |
[V:6]A,2 zA,,- A,,2 zA,, |
[V:1]d/f/b/c'/ d'd' d'2 z2 |
[V:2]z8 |
[V:3]f4 B4 |
[V:4]z8 |
[V:5]D4 D/F/B/c/ dd |
[V:6]B,,B,, B,,B,, B,,B,, B,,B,, |
[V:1]_e/f/a/c'/ _e'e' e'2 z2 |
[V:2]z8 |
[V:3]c4 F4 |
[V:4]z8 |
[V:5]_e2 z2 _E/F/A/c/ ec |
[V:6]A,,A,, A,,A,, A,,A,, A,,A,, |
[V:1]d/f/b/c'/ d'd' d'2 z2 |
[V:2]z8 |
[V:3]f4 B4 |
[V:4]z8 |
[V:5]d2 z2 D/F/B/c/ dd |
[V:6]B,,B,, B,,B,, B,,B,, B,,B,, |
[V:1]_e/f/a/c'/ _e'e' e'2 z2 |
[V:2]z8 |
[V:3]c4 F2 z2 |
[V:4]z8 |
[V:5]_e2 z2 [C2_E2] z2 |
[V:6]A,,A,, A,,A,, A,,2 z2 |
[V:1]d'4 g4 |
[V:2]z8 |
[V:3]zc cc zB BB |
[V:4]z8 |
[V:5]zA AA zB BB |
[V:6]z^F FF zG GG |
[V:1]a4 d4 |
[V:2]z8 |
[V:3]z^c cc zd dd |
[V:4]z8 |
[V:5]zG GG zF FF |
[V:6]zE EE zD DD |
[V:1]ze ee zf ff |
[V:2]z8 |
[V:3]z^c cc zd dd |
[V:4]z8 |
[V:5]zA AA zA AA |
[V:6]A,4 D,4 |
[V:1]z^g gg za aa |
[V:2]z8 |
[V:3]z=B BB z^c cc |
[V:4]z8 |
[V:5]zd dd ze ee |
[V:6]E,4 A,,4 |
[V:1]za aa zb bb |
[V:2]z8 |
[V:3]zf ff zg gg |
[V:4]z8 |
[V:5]zd dd zd dd |
[V:6]D,4 G,,4 |
[V:1]z^c' c'c' d'2 z2 |
[V:2]z8 |
[V:3]ze ee f2 z2 |
[V:4]z8 |
[V:5]zG GG F2 z2 |
[V:6]A,,4 D,,4 |
[V:1]ze' e'e' f'2 z2 |
[V:2]z8 |
[V:3]z^c' c'c' d'2 z2 |
[V:4]z8 |
[V:5]zA AA A2 z2 |
[V:6]zA, A,A, D2 z2 |
[V:1]z2 ^C2 C2 C2 |
[V:2]z8 |
[V:3]z2 [A,2E2] [E2A,2] [E2A,2] |
[V:4]z8 |
[V:5]z2 G,2 G,2 G,2 |
[V:6]z2 A,,2 A,,2 A,,2 |
[V:1]D8 |
[V:2]z8 |
[V:3][D8A,8] |
[V:4]z8 |
[V:5]F,8 |
[V:6]D,,8 |
[V:1]C6 zz |
[V:2]z8 |
[V:3][D6A,6] zD- |
[V:4]z8 |
[V:5]D,6 zz |
[V:6]^F,,6 zz |
[V:1]d/_e/d/^c/ d/e/d/c/ d/g/b/a/ g/f/=e/d/ |
[V:2]z8 |
[V:3]D2 zD- D2 zC- |
[V:4]z8 |
[V:5]zA,- A,2 zB,- B,2 |
[V:6]z^F,- F,2 zG,- G,2 |
[V:1]c/d/c/=B/ c/d/c/B/ c/f/a/g/ f/e/d/c/ |
[V:2]z8 |
[V:3]C2 zC- C2 zB,- |
[V:4]z8 |
[V:5]zG,- G,2 zA,- A,2 |
[V:6]zE,- E,2 zF,- F,2 |
[V:1]B/a/g/f/ e/d/c/B/ A/g/f/e/ d/c/B/A/ |
[V:2]z8 |
[V:3]B,2 zG/F/ Ez Fz |
[V:4]z8 |
[V:5]D,z E,z ^C,z D,z |
[V:6]zD, zE, z^C, zD,/=C,/ |
[V:1]^Gd2 f2 e2 d |
[V:2]z8 |
[V:3]D4 ^G4 |
[V:4]z8 |
[V:5]^G,4 DE2 F/D/ |
[V:6]B,,/C,/B,,/A,,/ B,,/C,/B,,/A,,/ B,,/C,/B,,/A,,/ B,,B,, |
[V:1]^ca2 a2 a2 a |
[V:2]z8 |
[V:3]A/E/D/E/ ^C/D/C/E/ D/E/D/F/ E/F/E/G/ |
[V:4]z8 |
[V:5]E^C A,/=B,/A,/C/ B,/C/B,/D/ C/D/C/E/ |
[V:6]A,,2 A,,2 A,,2 A,,2 |
[V:1]b/c'/b/a/ b/c'/b/a/ bb zb |
[V:2]z8 |
[V:3]FF zF G/A/G/^F/ G/A/G/=F/ |
[V:4]z8 |
[V:5]DD zD E/F/E/D/ E/F/E/D/ |
[V:6]A,,8- |
[V:1]a/b/a/^g/ a/b/a/g/ aa za |
[V:2]z8 |
[V:3]EE zE F/G/F/E/ F/G/F/E/ |
[V:4]z8 |
[V:5]^CC zC D/E/D/C/ D/E/D/=C/ |
[V:6]A,,8- |
[V:1]^gg zg =gg zg |
[V:2]z8 |
[V:3]D4 E3 D/E/ |
[V:4]z8 |
[V:5]=B,4 ^C3 B,/C/ |
[V:6]A,,8 |
[V:1]f4 ^f3 e/f/ |
[V:2]z8 |
[V:3]D4 c4 |
[V:4]z8 |
[V:5]D8- |
[V:6]B,,/C,/B,,/A,,/ B,,/D,/C,/B,,/ A,,/B,,/A,,/G,,/ A,,/C,/B,,/A,,/ |
[V:1]g/^f/g/a/ g/f/g/a/ gg2 g |
[V:2]z8 |
[V:3]B4- BB2 B |
[V:4]z8 |
[V:5]D4 E4- |
[V:6]G,,/A,,/B,,/C,/ B,,/A,,/G,,/F,,/ E,,/F,,/G,,/A,,/ G,,/F,,/E,,/D,,/ |
[V:1]gz fz ez ^cz |
[V:2]z8 |
[V:3]Az Az Gz Ez |
[V:4]z8 |
[V:5]Ez Fz Bz Gz |
[V:6]^C,,z D,,z G,,z A,,z |
[V:1]d4 A4 |
[V:2]z8 |
[V:3]F4 ^F4 |
[V:4]z8 |
[V:5]F2 A,2 C4 |
[V:6]D,,/E,,/D,,/^C,,/ D,,/E,,/D,,/C,,/ D,,/E,,/D,,/C,,/ D,,/E,,/D,,/C,,/ |
[V:1]B4 ^C4 |
[V:2]z8 |
[V:3][G4G,4] [B,4E4] |
[V:4]z8 |
[V:5]B,4 G,4 |
[V:6]D,,/E,,/D,,/^C,,/ D,,/E,,/D,,/C,,/ D,,/E,,/D,,/C,,/ D,,/E,,/D,,/C,,/ |
[V:1]Dz [EA,]z [FA,]z [^cE]z |
[V:2]z8 |
[V:3][FA,]z ^Cz Dz Gz |
[V:4]z8 |
[V:5]F,z A,z A,z [GA,]z |
[V:6]D,,z A,,z D,z A,z |
[V:1]dz [eA]z [fA]z [^c'e]z |
[V:2]z8 |
[V:3]Fz [^cE]z [dD]z [gA]z |
[V:4]z8 |
[V:5][AA,]z [GA,]z [FA,]z [EA,]z |
[V:6]D,z A,z D,z A,,z |
[V:1][D2d2d'2] z2 z4 |]
[V:2]z8 |]
[V:3][D2f2A2] z6 |]
[V:4]z8 |]
[V:5][F2A,2] z6 |]
[V:6]D,,2 z6 |]

